X: 18180
T: Humours Of Ennistymon, The
R: jig
M: 6/8
K: Gmajor
|:B2G GBd|cBc ABc|BAB GBd|cAG FGA|
B2G GBd|cBc ABc|ded cAF|AGG G3:|
|:f3 fed|cAG FGA|Ggg gfg|afd d2e|
fgf fed|cAG FGA|BdB cAF|1 AGG G3:|2 AGG G2||
|:g|gdB gdB|ecA ecA|BAB GBd|cAG FGA|
[1 gdB gdB|ecA ecA|BAB GBd|cAF G2:|
[2 BAB GBd|cBc ABc|ded cAF|AGG G3||

